X:1
T:Inisheer
C:Thomas P Walsh
M:3/4
L:1/8
K:G
|D2
|:"G"B3A Bd|"Em"B3A Bd|"C"E3B AB|"D"D4 D2
|"G"B3A Bd|"Em"B3A Bd|"Am7"G3B "D"(3AGF|1"G"G4 D2:|2 "G"G3 A Bd|
|:"C"e3f ed|"Bm"B3A Bd|"Em"ef ed Bd|"C"e4 "G"Bd
|"Am7"e3f ed|"Bm"B3A Bd|"D"E3B (3AGF|1 "G"G3A Bd:|2 "G"G3 z||
